www/assets/images/test_icons/flags/DZ.svg

<svg fill="none" height="15" viewBox="0 0 21 15" width="21" xmlns="http://www.w3.org/2000/svg" xmlns:xlink="http://www.w3.org/1999/xlink"><mask id="a" height="15" maskUnits="userSpaceOnUse" width="21" x="0" y="0"><path d="m19 0h-17c-1.10457 0-2 .89543-2 2v11c0 1.1046.89543 2 2 2h17c1.1046 0 2-.8954 2-2v-11c0-1.10457-.8954-2-2-2z" fill="#fff"/></mask><g mask="url(#a)"><path d="m19 0h-17c-1.10457 0-2 .89543-2 2v11c0 1.1046.89543 2 2 2h17c1.1046 0 2-.8954 2-2v-11c0-1.10457-.8954-2-2-2z" fill="#fff"/><g clip-rule="evenodd" fill-rule="evenodd"><path d="m0 0h10v15h-10z" fill="#357c58"/><path d="m13.052 10.263c-.822 1.057-2.108 1.737-3.552 1.737-2.485 0-4.5-2.015-4.5-4.5s2.015-4.5 4.5-4.5c1.444 0 2.73.68 3.552 1.737-.635-.462-1.434-.737-2.302-.737-2.07 0-3.75 1.567-3.75 3.5s1.68 3.5 3.75 3.5c.868 0 1.667-.275 2.302-.737z" fill="#e82e2e"/><path d="m13 7.5 1-.5.5-1 .5 1 1 .5-1 .5-.5 1-.5-1z" fill="#e82e2e"/></g><path d="m19 .5h-17c-.82843 0-1.5.67157-1.5 1.5v11c0 .8284.67157 1.5 1.5 1.5h17c.8284 0 1.5-.6716 1.5-1.5v-11c0-.82843-.6716-1.5-1.5-1.5z" stroke="#000" stroke-opacity=".1"/></g></svg>

<svg width="21" height="15" viewBox="0 0 21 15" fill="none" xmlns="http://www.w3.org/2000/svg">
<mask id="mask0_3_162" style="mask-type:alpha" maskUnits="userSpaceOnUse" x="0" y="0" width="21" height="15">
<path d="M19 0H2C0.89543 0 0 0.89543 0 2V13C0 14.1046 0.89543 15 2 15H19C20.1046 15 21 14.1046 21 13V2C21 0.89543 20.1046 0 19 0Z" fill="white"/>
</mask>
<g mask="url(#mask0_3_162)">
<path d="M19 0H2C0.89543 0 0 0.89543 0 2V13C0 14.1046 0.89543 15 2 15H19C20.1046 15 21 14.1046 21 13V2C21 0.89543 20.1046 0 19 0Z" fill="white"/>
<path fill-rule="evenodd" clip-rule="evenodd" d="M0 0H10V15H0V0Z" fill="#357C58"/>
<path fill-rule="evenodd" clip-rule="evenodd" d="M13.052 10.263C12.23 11.32 10.944 12 9.5 12C7.015 12 5 9.985 5 7.5C5 5.015 7.015 3 9.5 3C10.944 3 12.23 3.68 13.052 4.737C12.417 4.275 11.618 4 10.75 4C8.68 4 7 5.567 7 7.5C7 9.433 8.68 11 10.75 11C11.618 11 12.417 10.725 13.052 10.263Z" fill="#E82E2E"/>
<path fill-rule="evenodd" clip-rule="evenodd" d="M13 7.5L14 7L14.5 6L15 7L16 7.5L15 8L14.5 9L14 8L13 7.5Z" fill="#E82E2E"/>
<path d="M19 0.5H2C1.17157 0.5 0.5 1.17157 0.5 2V13C0.5 13.8284 1.17157 14.5 2 14.5H19C19.8284 14.5 20.5 13.8284 20.5 13V2C20.5 1.17157 19.8284 0.5 19 0.5Z" stroke="black" stroke-opacity="0.1"/>
</g>
</svg>
